@SIZE 620 620 
@BACKGROUND 255 255 255 
@POSITION 10 10 
@FRAME 30
FUNC Line() 
	DEF c 0 
	DEF p TRUE 
	DEF i 0 
	THICK 6 
	WHILE p 
		COLOR c c c 
		MOVE 3 
		ADD c 1 c 
		ADD i 1 i 
		LEQ i 200 p 
	END WHILE 
END FUNC 
TURN 180 
DEF p TRUE 
DEF i 0 
WHILE p 
	CALL Line() VOID 
	TURN -90 
	ADD i 1 i 
	LEQ i 4 p 
END WHILE 
