@SIZE 600 392
@BACKGROUND 255 255 0
@POSITION 0 0
@FRAME 10
FUNC Star(r)
	TURN 162
	COLOR 254 0 0
	REPEAT 5
		MOVE r
		TURN 288
		MOVE r
		TURN 144
	END REPEAT
END FUNC
POS 94 40
ARG 90
CALL Star(42) VOID
POS 204 17
ARG 75
CALL Star(15) VOID
POS 252 64
ARG 45
CALL Star(15) VOID
POS 237 119
ARG 90
CALL Star(15) VOID
POS 204 161
ARG 75
CALL Star(15) VOID
CLOAK
POS 300 300
PAINT
