@SIZE 500 500 
@BACKGROUND 255 255 255 
@POSITION 50 250 
@FRAME 15 
FUNC Circle(radius) 
	MUL radius 3.14159 radius 
	DIV radius 180 radius 
	REPEAT 360 
		MOVE radius 
		TURN 1 
	END REPEAT 
END FUNC 
FUNC Multicircle(num) 
	IF num 
		DEF s num 
		MUL s 5 s 
		CALL Circle(s) VOID 
		SUB num 1 num 
		CALL Multicircle(num) VOID 
	ELSE 
			RETURN VOID 
	END IF 
END FUNC 
CALL Multicircle(30) VOID 
