@SIZE 400 800 
@BACKGROUND 255 255 255 
@POSITION 200 10 
@FRAME 0
TURN 90 
REPEAT 180 
	MOVE 2 
	TURN 1 
END REPEAT 
REPEAT 360 
	MOVE 3 
	TURN -1 
END REPEAT 
REPEAT 180 
	MOVE 2 
	TURN 1 
END REPEAT 
